flaticon/baby/abacus.svg

<svg xmlns="http://www.w3.org/2000/svg" width="32" height="32" viewBox="0 0 24 24">
    <path d="M 22.078125 0.238281 C 21.019531 0.238281 20.160156 1.101562 20.160156 2.160156 L 20.160156 5.039062 L 12.480469 5.039062 L 12.480469 3.804688 C 12.480469 3.160156 11.957031 2.640625 11.316406 2.640625 L 9.804688 2.640625 C 9.546875 2.640625 9.3125 2.726562 9.121094 2.867188 C 8.925781 2.726562 8.691406 2.640625 8.4375 2.640625 L 6.921875 2.640625 C 6.28125 2.640625 5.761719 3.160156 5.761719 3.804688 L 5.761719 5.039062 L 3.839844 5.039062 L 3.839844 2.160156 C 3.839844 1.101562 2.980469 0.238281 1.921875 0.238281 C 0.859375 0.238281 0 1.101562 0 2.160156 L 0 21.839844 C 0 22.898438 0.859375 23.761719 1.921875 23.761719 C 2.980469 23.761719 3.839844 22.898438 3.839844 21.839844 L 3.839844 19.441406 L 11.519531 19.441406 L 11.519531 20.640625 C 11.519531 21.304688 12.058594 21.839844 12.71875 21.839844 L 14.164062 21.839844 C 14.433594 21.839844 14.679688 21.746094 14.878906 21.59375 C 15.082031 21.746094 15.328125 21.839844 15.597656 21.839844 L 17.042969 21.839844 C 17.703125 21.839844 18.238281 21.304688 18.238281 20.640625 L 18.238281 19.441406 L 20.160156 19.441406 L 20.160156 21.839844 C 20.160156 22.898438 21.019531 23.761719 22.078125 23.761719 C 23.140625 23.761719 24 22.898438 24 21.839844 L 24 2.160156 C 24 1.101562 23.140625 0.238281 22.078125 0.238281 Z M 2.878906 21.839844 C 2.878906 22.371094 2.449219 22.800781 1.921875 22.800781 C 1.390625 22.800781 0.960938 22.371094 0.960938 21.839844 L 0.960938 2.160156 C 0.960938 1.628906 1.390625 1.199219 1.921875 1.199219 C 2.449219 1.199219 2.878906 1.628906 2.878906 2.160156 Z M 9.804688 3.601562 L 11.316406 3.601562 C 11.429688 3.601562 11.519531 3.691406 11.519531 3.804688 L 11.519531 7.238281 C 11.519531 7.347656 11.429688 7.441406 11.316406 7.441406 L 9.804688 7.441406 C 9.691406 7.441406 9.601562 7.347656 9.601562 7.238281 L 9.601562 3.804688 C 9.601562 3.691406 9.691406 3.601562 9.804688 3.601562 Z M 6.71875 3.804688 C 6.71875 3.691406 6.8125 3.601562 6.921875 3.601562 L 8.4375 3.601562 C 8.550781 3.601562 8.640625 3.691406 8.640625 3.804688 L 8.640625 7.238281 C 8.640625 7.347656 8.550781 7.441406 8.4375 7.441406 L 6.921875 7.441406 C 6.8125 7.441406 6.71875 7.347656 6.71875 7.238281 Z M 5.761719 6 L 5.761719 7.238281 C 5.761719 7.878906 6.28125 8.398438 6.921875 8.398438 L 8.4375 8.398438 C 8.691406 8.398438 8.925781 8.316406 9.121094 8.175781 C 9.3125 8.316406 9.546875 8.398438 9.804688 8.398438 L 11.316406 8.398438 C 11.957031 8.398438 12.480469 7.878906 12.480469 7.238281 L 12.480469 6 L 20.160156 6 L 20.160156 11.761719 L 16.320312 11.761719 L 16.320312 10.378906 C 16.320312 9.816406 15.863281 9.359375 15.300781 9.359375 L 13.5 9.359375 C 13.300781 9.359375 13.117188 9.417969 12.960938 9.519531 C 12.804688 9.417969 12.617188 9.359375 12.421875 9.359375 L 10.621094 9.359375 C 10.421875 9.359375 10.238281 9.417969 10.078125 9.519531 C 9.921875 9.417969 9.738281 9.359375 9.539062 9.359375 L 7.738281 9.359375 C 7.175781 9.359375 6.71875 9.816406 6.71875 10.378906 L 6.71875 11.761719 L 3.839844 11.761719 L 3.839844 6 Z M 13.441406 10.378906 C 13.441406 10.347656 13.46875 10.320312 13.5 10.320312 L 15.300781 10.320312 C 15.332031 10.320312 15.359375 10.347656 15.359375 10.378906 L 15.359375 14.101562 C 15.359375 14.132812 15.332031 14.160156 15.300781 14.160156 L 13.5 14.160156 C 13.46875 14.160156 13.441406 14.132812 13.441406 14.101562 Z M 10.558594 10.378906 C 10.558594 10.347656 10.585938 10.320312 10.621094 10.320312 L 12.421875 10.320312 C 12.453125 10.320312 12.480469 10.347656 12.480469 10.378906 L 12.480469 14.101562 C 12.480469 14.132812 12.453125 14.160156 12.421875 14.160156 L 10.621094 14.160156 C 10.585938 14.160156 10.558594 14.132812 10.558594 14.101562 Z M 9.601562 14.101562 C 9.601562 14.132812 9.574219 14.160156 9.539062 14.160156 L 7.738281 14.160156 C 7.707031 14.160156 7.679688 14.132812 7.679688 14.101562 L 7.679688 10.378906 C 7.679688 10.347656 7.707031 10.320312 7.738281 10.320312 L 9.539062 10.320312 C 9.574219 10.320312 9.601562 10.347656 9.601562 10.378906 Z M 14.164062 20.878906 L 12.71875 20.878906 C 12.585938 20.878906 12.480469 20.773438 12.480469 20.640625 L 12.480469 17.277344 C 12.480469 17.148438 12.585938 17.039062 12.71875 17.039062 L 14.164062 17.039062 C 14.292969 17.039062 14.398438 17.148438 14.398438 17.277344 L 14.398438 20.640625 C 14.398438 20.773438 14.292969 20.878906 14.164062 20.878906 Z M 17.28125 20.640625 C 17.28125 20.773438 17.171875 20.878906 17.042969 20.878906 L 15.597656 20.878906 C 15.464844 20.878906 15.359375 20.773438 15.359375 20.640625 L 15.359375 17.277344 C 15.359375 17.148438 15.464844 17.039062 15.597656 17.039062 L 17.042969 17.039062 C 17.171875 17.039062 17.28125 17.148438 17.28125 17.277344 Z M 18.238281 18.480469 L 18.238281 17.277344 C 18.238281 16.617188 17.703125 16.078125 17.042969 16.078125 L 15.597656 16.078125 C 15.328125 16.078125 15.082031 16.171875 14.878906 16.324219 C 14.679688 16.171875 14.433594 16.078125 14.164062 16.078125 L 12.71875 16.078125 C 12.058594 16.078125 11.519531 16.617188 11.519531 17.277344 L 11.519531 18.480469 L 3.839844 18.480469 L 3.839844 12.71875 L 6.71875 12.71875 L 6.71875 14.101562 C 6.71875 14.664062 7.175781 15.121094 7.738281 15.121094 L 9.539062 15.121094 C 9.738281 15.121094 9.921875 15.058594 10.078125 14.960938 C 10.238281 15.058594 10.421875 15.121094 10.621094 15.121094 L 12.421875 15.121094 C 12.617188 15.121094 12.804688 15.058594 12.960938 14.960938 C 13.117188 15.058594 13.300781 15.121094 13.5 15.121094 L 15.300781 15.121094 C 15.863281 15.121094 16.320312 14.664062 16.320312 14.101562 L 16.320312 12.71875 L 20.160156 12.71875 L 20.160156 18.480469 Z M 23.039062 21.839844 C 23.039062 22.371094 22.609375 22.800781 22.078125 22.800781 C 21.550781 22.800781 21.121094 22.371094 21.121094 21.839844 L 21.121094 2.160156 C 21.121094 1.628906 21.550781 1.199219 22.078125 1.199219 C 22.609375 1.199219 23.039062 1.628906 23.039062 2.160156 Z M 23.039062 21.839844"/>
</svg>

<svg xmlns="http://www.w3.org/2000/svg" width="32" height="32" viewBox="0 0 24 24">
    <path d="M22.078.238A1.922 1.922 0 0 0 20.16 2.16v2.88h-7.68V3.804c0-.645-.523-1.164-1.164-1.164H9.805c-.258 0-.492.086-.684.226a1.166 1.166 0 0 0-.684-.226H6.923c-.64 0-1.16.52-1.16 1.164v1.234H3.84V2.16c0-1.058-.86-1.922-1.918-1.922A1.923 1.923 0 0 0 0 2.16v19.68c0 1.058.86 1.922 1.922 1.922A1.922 1.922 0 0 0 3.84 21.84V19.44h7.68v1.2c0 .664.539 1.199 1.199 1.199h1.445c.27 0 .516-.094.715-.246.203.152.45.246.719.246h1.445c.66 0 1.195-.535 1.195-1.2v-1.199h1.922v2.399c0 1.058.86 1.922 1.918 1.922A1.923 1.923 0 0 0 24 21.84V2.16c0-1.058-.86-1.922-1.922-1.922zM2.878 21.84a.96.96 0 1 1-1.917 0V2.16a.96.96 0 0 1 1.918 0zM9.806 3.602h1.511c.114 0 .204.09.204.203v3.433c0 .11-.09.203-.204.203H9.805a.204.204 0 0 1-.203-.203V3.805c0-.114.09-.203.203-.203zm-3.086.203c0-.114.093-.203.203-.203h1.516c.113 0 .203.09.203.203v3.433c0 .11-.09.203-.204.203H6.923a.207.207 0 0 1-.203-.203zM5.762 6v1.238c0 .64.52 1.16 1.16 1.16h1.516c.253 0 .488-.082.683-.222.191.14.426.222.684.222h1.511c.641 0 1.164-.52 1.164-1.16V6h7.68v5.762h-3.84v-1.383a1.02 1.02 0 0 0-1.02-1.02h-1.8c-.2 0-.383.059-.54.16a.992.992 0 0 0-.538-.16h-1.8c-.2 0-.384.059-.544.16a.982.982 0 0 0-.539-.16h-1.8a1.02 1.02 0 0 0-1.02 1.02v1.383h-2.88V6zm7.68 4.379a.06.06 0 0 1 .058-.059h1.8a.06.06 0 0 1 .06.059v3.723a.06.06 0 0 1-.06.058h-1.8a.06.06 0 0 1-.059-.058zm-2.883 0c0-.031.027-.059.062-.059h1.8a.06.06 0 0 1 .06.059v3.723a.06.06 0 0 1-.06.058h-1.8c-.035 0-.062-.027-.062-.058zm-.957 3.723c0 .03-.028.058-.063.058h-1.8a.06.06 0 0 1-.06-.058v-3.723a.06.06 0 0 1 .06-.059h1.8c.035 0 .063.028.063.059zm4.562 6.777H12.72a.237.237 0 0 1-.239-.238v-3.364a.24.24 0 0 1 .239-.238h1.445c.129 0 .234.11.234.238v3.364a.236.236 0 0 1-.234.238zm3.117-.238a.24.24 0 0 1-.238.238h-1.445a.237.237 0 0 1-.239-.238v-3.364a.24.24 0 0 1 .239-.238h1.445c.129 0 .238.11.238.238zm.957-2.16v-1.204c0-.66-.535-1.199-1.195-1.199h-1.445c-.27 0-.516.094-.72.246a1.172 1.172 0 0 0-.714-.246H12.72c-.66 0-1.2.54-1.2 1.2v1.202H3.84V12.72h2.88v1.383c0 .562.457 1.02 1.02 1.02h1.8c.2 0 .383-.063.54-.161.16.098.343.16.542.16h1.8c.196 0 .384-.062.54-.16.156.098.34.16.539.16h1.8a1.02 1.02 0 0 0 1.02-1.02V12.72h3.84v5.761zm4.801 3.359a.96.96 0 0 1-1.918 0V2.16a.96.96 0 1 1 1.918 0zm0 0"/>
</svg>
